images/svg/icons-delete.svg

<svg width="17" height="16" viewBox="0 0 17 16" fill="none" xmlns="http://www.w3.org/2000/svg">
<path d="M15.6928 2.3H0.992822C0.692822 2.3 0.392822 2.5 0.392822 2.8C0.392822 3.1 0.692822 3.4 0.992822 3.4H2.69282V15.4C2.69282 15.7 2.99282 16 3.29282 16H13.4928C13.7928 16 14.0928 15.7 14.0928 15.4V3.4H15.7928C16.0928 3.4 16.3928 3.1 16.3928 2.8C16.3928 2.5 15.9928 2.3 15.6928 2.3ZM12.8928 14.8H3.79282V3.4H12.8928V14.8Z" fill="black"/>
<path d="M6.59282 1.2H9.99282C10.2928 1.2 10.5928 0.9 10.5928 0.6C10.5928 0.3 10.3928 0 10.0928 0H6.59282C6.29282 0 6.09282 0.3 6.09282 0.6C6.09282 0.9 6.29282 1.2 6.59282 1.2Z" fill="black"/>
<path d="M6.59282 12C6.89282 12 7.19282 11.7 7.19282 11.4V5.7C7.19282 5.4 6.89282 5.1 6.59282 5.1C6.29282 5.1 5.99282 5.4 5.99282 5.7V11.4C6.09282 11.7 6.29282 12 6.59282 12Z" fill="black"/>
<path d="M10.0928 12C10.3928 12 10.6928 11.7 10.6928 11.4V5.7C10.6928 5.4 10.3928 5.1 10.0928 5.1C9.79282 5.1 9.49282 5.5 9.49282 5.7V11.4C9.49282 11.7 9.69282 12 10.0928 12Z" fill="black"/>
</svg>

<svg xmlns="http://www.w3.org/2000/svg" width="17" height="16" fill="none"><path fill="#000" d="M15.693 2.3H.993c-.3 0-.6.2-.6.5s.3.6.6.6h1.7v12c0 .3.3.6.6.6h10.2c.3 0 .6-.3.6-.6v-12h1.7c.3 0 .6-.3.6-.6s-.4-.5-.7-.5Zm-2.8 12.5h-9.1V3.4h9.1v11.4ZM6.593 1.2h3.4c.3 0 .6-.3.6-.6s-.2-.6-.5-.6h-3.5c-.3 0-.5.3-.5.6s.2.6.5.6Z"/><path fill="#000" d="M6.593 12c.3 0 .6-.3.6-.6V5.7c0-.3-.3-.6-.6-.6s-.6.3-.6.6v5.7c.1.3.3.6.6.6ZM10.093 12c.3 0 .6-.3.6-.6V5.7c0-.3-.3-.6-.6-.6s-.6.4-.6.6v5.7c0 .3.2.6.6.6Z"/></svg>
